!!!OTL: Die Frau zur Weissenburg
!!!ARE: Europa, Mitteleuropa, Deutschland
!!!SCT: A0034
!!!YEM: Copyright 1995, estate of Helmut Schaffrath.
**kern
*ICvox
*Ivox
*M3/2
*k[b-e-]
*g:
{2g
=1
1g
2g
=2
1a
2a
=3
1b-
2g
=4
1fn}
{2fn
=5
1b-
2cc
=6
1dd
2cc
=7
2.dd
4cc
2b-
=8
1a}
{2a
=9
2dd
2dd
2dd
=10
1b-
2cc
=11
2b-
2a
2g
=12
1fn}
{2fn
=13
2.g
4a
2b-
=14
1cc
2b-
=15
1.a
=16
1g}
==
!!!AGN: Romanze, Ballade, Lied
!! Melodie (Text von Boehme willkuerlich unterlegt): Souterliedekens
!!    1540 ad Ps. 137.
!!!ONB: ESAC (Essen Associative Code) Database: ALTDEU
!!!AMT: simple triple
!!!AIN: vox
!!!EED: Helmut Schaffrath
!!!EEV: 1.0
*-
